X:1
T:Von Lieb bin ich entzündet
T:Giovanni Giacomo Gastoldi 
T:Source : Tricinia---Johann-Jacob Gastoldi und anderer Autorn---Nürnberg---P.Kauffmann---1607. Editor : André Vierendeels (14/03/17).
T:Notes : Original clefs : G2, G2, C3 Editorial accidentals above the staff Text Middle German by Valentin Hauszmann
T:Von Lieb bin ich entzündet
T:©
T:©
T:©
C:Giovanni Giacomo Gastoldi
Z:©
%%score [ 1 2 3 ]
L:1/8
Q:1/4=120
M:4/4
K:F
V:1 treble nm="Soprano 1" snm="S 1"
V:2 treble nm="Soprano 2" snm="S 2"
V:3 treble-8 nm="Tenor" snm="T"
V:1
"^1)" d4 G2 d2- | dc B2 A2 G2- | G2 ^F2 G4 | z2 g2 f3 e | d2 f2 e3 d | c2 A2 B2 F2 | z2 B2 A2 G2 | %7
w: Von Lieb bin|ich _ _ ent- zün-|* * det|die steht al-|lein, mein Schatz, auff|dich ge- grün- det,|mein Schatz, auff|
w: Wenn ich ta-|* * * send trag-|* * te,|und bringt di|für ein jäm- mer-|li- che Klag- te,|mit waar- heit|
"^-natural" F2 B2 A4 |[M:2/4] =B4 ::[M:4/4] z2 f2 f4 | _e4 d4 | G4 d4 | c2 B2 c4- | c4 d4 | %14
w: dich ge- grün-|det,|disz hab|ich dir|ver- kün-||* det,|
w: ich doch sa-|gte,|dasz du|disz al-|les nicht|gar _ _|_ vil,|
 z2 A2 B2 c2 | d2 c2 d3 d | d2 c2 B4 | A4 z4 | d6 A2 | c6 G2 | B2 A2 z4 | d4 c4 | B4 A4- | %23
w: a- ber ich|spür gar nicht, dasz|du wilt hel-|ffen,|läszt mich|ohn dei-|nen trost|nur schreyn|und gel-|
w: dasz du disz|al- les nicht gar|vil thust ach-|ten,|wie hertz-|lich ich|dei- ner|Lieb thu|nach trach-|
 A4 !fermata!G4 :| %24
w: * ffen.|
w: * ten.|
V:2
"^2)""^1)" z4 d4 | G2 d3 c B2 | A4 G2 B2- | BA G2 A3 G | F4 G2 g2 | f3 e d2 B2 | A2 G2 ^F2 G2 | %7
w: Von|Lieb bin ich ent-|zün- det, bin|_ ich ent- zün- *|* det, die|steht al- lein, mein|Schatz, auff dich ge-|
w: Ach,|Schatz, lasz dich er|wei- chen, lasz|_ dich er wei- *|* chen, ists|mög- lich, lasz mich|dei- ne gunst er-|
 A2 G4 ^F2 |[M:2/4] G4 ::[M:4/4] d8 | c4 B4 | c4 A4 | B4 A4- | A4 B4 | z2 ^F2 G2 A2 | B2 A2 B3 B | %16
w: grün _ _|det,|disz|hab ich|dir ver-|kün- *|* det,|a- ber ich|spür gar nicht dasz|
w: rei- * *|chen,|dein|Hertz ist|je nicht|Ei- *|* chen,|wirst du mein|treu- e dienst bey|
 B2 A2 G4 | ^F4 B4- | B2 A2 A4- | A2 G2 G4 | F4 B4- | B4 A4 | G8 | ^F4 !fermata!G4 :| %24
w: du wilt hel-|ffen, läszt|_ mich ohn|_ dei- nen|trost nur|_ schreyn|und|gel- ffen.|
w: dir er- wie-|gen, glaub|_ ich, du|_ werdst mich|nicht lan|_ hülff-|losz|li- gen.|
V:3
"^3)" z8 |"^1)" g4 d4- | d4 z2 g2- | gf _e2 d4 | d2 d2 c2 B2 | A2 d2 B3 c | d6 _e2 | d8 | %8
w: |Von Lieb|_ bin|_ ich ent- zün-|det, die steht al-|lein, mein Schatz, auff|dich ge-|grün-|
[M:2/4] G4 ::[M:4/4] B4 B4 | c4 d4 | e4 f4- | f8- | f4 B4 |"^-natural" z2 d2 g2 f2 | B2 f2 B3 B | %16
w: det,|disz hab|ich dir|ver- kün-||* det,|a- ber ich|spür gar nicht dasz|
 B2 F2 G4 | d4 g4- | g2 d2 f4- | f2 c2 _e4 | d2 d2 B4- | B4 c4- | c4 d4- | d4 !fermata!G4 :| %24
w: du wilt hel-|ffen, läszt|_ mich ohn|_ dei- nen|trost nur schreyn|_ und|_ gel-|* ffen,|

